src/assets/fleet-icons/fuel-cards.svg

<svg width="24" height="24" viewBox="0 0 24 24" fill="none" xmlns="http://www.w3.org/2000/svg">
<path d="M14.25 19V8.75C14.25 7.64543 13.3546 6.75 12.25 6.75H7.75C6.64543 6.75 5.75 7.64543 5.75 8.75V19" stroke="#656565" stroke-linecap="round" stroke-linejoin="round"/>
<path d="M11.25 9.75H8.75V13.25H11.25V9.75Z" stroke="#656565" stroke-linecap="round" stroke-linejoin="round"/>
<path d="M4.75 19.25H15.25" stroke="#656565" stroke-linecap="round" stroke-linejoin="round"/>
<path d="M14.5 16H15.25C16.3546 16 17.25 15.1046 17.25 14V10.3802C17.25 10.1353 17.3399 9.89889 17.5026 9.71584L19.25 7.75" stroke="#656565" stroke-linecap="round" stroke-linejoin="round"/>
</svg>

<svg width="24" height="24" fill="none" xmlns="http://www.w3.org/2000/svg">
    <path d="M14.25 19V8.75a2 2 0 0 0-2-2h-4.5a2 2 0 0 0-2 2V19" stroke="#656565" stroke-linecap="round"
        stroke-linejoin="round" />
    <path
        d="M11.25 9.75h-2.5v3.5h2.5v-3.5Zm-6.5 9.5h10.5M14.5 16h.75a2 2 0 0 0 2-2v-3.62a1 1 0 0 1 .253-.664L19.25 7.75"
        stroke="#656565" stroke-linecap="round" stroke-linejoin="round" />
</svg>
